svgs/sharp-light/drone-front.svg

<svg xmlns="http://www.w3.org/2000/svg" viewBox="0 0 640 512"><!--! Font Awesome Pro 6.6.0 by @fontawesome - https://fontawesome.com License - https://fontawesome.com/license (Commercial License) Copyright 2024 Fonticons, Inc. --><path d="M160 96l0 16 0 16 112 0 16 0 0 32-16 0L16 160 0 160l0-32 16 0 112 0 0-16 0-16 32 0zm352 0l0 16 0 16 112 0 16 0 0 32-16 0-256 0-16 0 0-32 16 0 112 0 0-16 0-16 32 0zM128 256l0-64 32 0 0 55.1 12.6 7.9 50.6-33.7C251.9 202.2 285.5 192 320 192s68.1 10.2 96.8 29.3L467.4 255l12.6-7.9 0-55.1 32 0 0 64 0 8.9-7.5 4.7-33.7 21-2.4 3.6-1.6-1.1-20.4 12.8 29.9 35.9 3.7 4.5 0 5.8 0 48 0 16-32 0 0-16 0-42.2L419 323l-42.5 26.6-3.9 2.4-4.6 0-96 0-4.6 0-3.9-2.4L221 323l-29 34.8 0 42.2 0 16-32 0 0-16 0-48 0-5.8 3.7-4.5 29.9-35.9-20.4-12.8-1.6 1.1-2.4-3.6-33.6-21-7.5-4.7 0-8.9zm74.4 17.6L276.6 320l86.8 0 74.2-46.4-38.5-25.7C375.7 232.3 348.1 224 320 224s-55.6 8.3-79.1 23.9l-38.5 25.7z"/></svg>

<svg xmlns="http://www.w3.org/2000/svg" viewBox="0 0 640 512"><!--! Font Awesome Pro 6.5.2 by @fontawesome - https://fontawesome.com License - https://fontawesome.com/license (Commercial License) Copyright 2024 Fonticons, Inc. --><path d="M160 96v16 16H272h16v32H272 16 0V128H16 128V112 96h32zm352 0v16 16H624h16v32H624 368 352V128h16H480V112 96h32zM128 256V192h32v55.1l12.6 7.9 50.6-33.7C251.9 202.2 285.5 192 320 192s68.1 10.2 96.8 29.3L467.4 255l12.6-7.9V192h32v64 8.9l-7.5 4.7-33.7 21-2.4 3.6-1.6-1.1-20.4 12.8 29.9 35.9 3.7 4.5V352v48 16H448V400 357.8L419 323l-42.5 26.6-3.9 2.4H368 272h-4.6l-3.9-2.4L221 323l-29 34.8V400v16H160V400 352v-5.8l3.7-4.5 29.9-35.9-20.4-12.8-1.6 1.1-2.4-3.6-33.6-21-7.5-4.7V256zm74.4 17.6L276.6 320h86.8l74.2-46.4-38.5-25.7C375.7 232.3 348.1 224 320 224s-55.6 8.3-79.1 23.9l-38.5 25.7z"/></svg>
